src/assets/archive.svg

<svg fill="none" height="28" viewBox="0 0 28 28" width="28" xmlns="http://www.w3.org/2000/svg"><path clip-rule="evenodd" d="m3.22246 4.38994c.3938-.3938.92792-.61504 1.48484-.61504h19.4984c.5569 0 1.091.22124 1.4848.61504s.6151.92792.6151 1.48484v2.99975c0 .33137-.2687.6-.6.6h-22.49818c-.33137 0-.6-.26863-.6-.6v-2.99975c0-.55692.22124-1.09104.61504-1.48484zm1.48484.58496c-.23866 0-.46755.09481-.63631.26357s-.26357.39765-.26357.63631v2.39975h21.29818v-2.39975c0-.23866-.0949-.46755-.2636-.63631-.1688-.16876-.3977-.26357-.6363-.26357zm-.09363 5.9331c.33137 0 .6.2686.6.6v9.0857c0 .6441.25587 1.2619.71132 1.7173.45545.4555 1.07317.7113 1.71728.7113h13.62863c.6441 0 1.2619-.2558 1.7173-.7113.4555-.4554.7113-1.0732.7113-1.7173v-9.0857c0-.3314.2687-.6.6-.6.3314 0 .6.2686.6.6v9.0857c0 .9624-.3823 1.8854-1.0628 2.5658-.6805.6805-1.6034 1.0628-2.5658 1.0628h-13.62863c-.96237 0-1.88531-.3823-2.56581-1.0628-.68049-.6804-1.06279-1.6034-1.06279-2.5658v-9.0857c0-.3314.26863-.6.6-.6zm7.88323 1.6702c-.3314 0-.6.2687-.6.6 0 .3314.2686.6.6.6h3.4871c.3314 0 .6-.2686.6-.6 0-.3313-.2686-.6-.6-.6z" fill="#343440" fill-rule="evenodd"/></svg>

<svg width="28" height="28" viewBox="0 0 28 28" fill="none" xmlns="http://www.w3.org/2000/svg">
<path fill-rule="evenodd" clip-rule="evenodd" d="M3.22246 4.38994C3.61626 3.99614 4.15038 3.7749 4.7073 3.7749H24.2057C24.7626 3.7749 25.2967 3.99614 25.6905 4.38994C26.0843 4.78374 26.3056 5.31786 26.3056 5.87478V8.87453C26.3056 9.2059 26.0369 9.47453 25.7056 9.47453H3.20742C2.87605 9.47453 2.60742 9.2059 2.60742 8.87453V5.87478C2.60742 5.31786 2.82866 4.78374 3.22246 4.38994ZM4.7073 4.9749C4.46864 4.9749 4.23975 5.06971 4.07099 5.23847C3.90223 5.40723 3.80742 5.63612 3.80742 5.87478V8.27453H25.1056V5.87478C25.1056 5.63612 25.0107 5.40723 24.842 5.23847C24.6732 5.06971 24.4443 4.9749 24.2057 4.9749H4.7073ZM4.61367 10.908C4.94504 10.908 5.21367 11.1766 5.21367 11.508V20.5937C5.21367 21.2378 5.46954 21.8556 5.92499 22.311C6.38044 22.7665 6.99816 23.0223 7.64227 23.0223H21.2709C21.915 23.0223 22.5328 22.7665 22.9882 22.311C23.4437 21.8556 23.6995 21.2378 23.6995 20.5937V11.508C23.6995 11.1766 23.9682 10.908 24.2995 10.908C24.6309 10.908 24.8995 11.1766 24.8995 11.508V20.5937C24.8995 21.5561 24.5172 22.4791 23.8367 23.1595C23.1562 23.84 22.2333 24.2223 21.2709 24.2223H7.64227C6.6799 24.2223 5.75696 23.84 5.07646 23.1595C4.39597 22.4791 4.01367 21.5561 4.01367 20.5937V11.508C4.01367 11.1766 4.2823 10.908 4.61367 10.908ZM12.4969 12.5782C12.1655 12.5782 11.8969 12.8469 11.8969 13.1782C11.8969 13.5096 12.1655 13.7782 12.4969 13.7782H15.984C16.3154 13.7782 16.584 13.5096 16.584 13.1782C16.584 12.8469 16.3154 12.5782 15.984 12.5782H12.4969Z" fill="#343440"/>
</svg>
